public/sheesh/icons17.svg

<svg fill="none" height="40" viewBox="0 0 40 40" width="40" xmlns="http://www.w3.org/2000/svg" xmlns:xlink="http://www.w3.org/1999/xlink"><linearGradient id="a"><stop offset="0" stop-color="#34c796"/><stop offset="1" stop-color="#0b7a55"/></linearGradient><linearGradient id="b" gradientUnits="userSpaceOnUse" x1="20" x2="20" xlink:href="#a" y1="0" y2="40"/><linearGradient id="c" gradientUnits="userSpaceOnUse" x1="20.0019" x2="20.0019" xlink:href="#a" y1="11.1133" y2="28.8903"/><circle cx="20" cy="20" fill="#151722" r="19" stroke="url(#b)" stroke-width="2"/><path clip-rule="evenodd" d="m24.489 11.4061c1.9289.5689 3.5378 2.1778 4.1067 4.1067.4355 1.4666.3911 2.48-.1511 3.1733-.6311.8444-1.7778.9422-2.5778.9422h-2.5511c-1.9556 0-2.9511-1.1111-2.9511-3.2978v-2.2133c0-.8089.0978-1.9467.9422-2.5778.7022-.5244 1.7156-.56 3.1822-.1333zm.7376 9.3864c.3466 0 .6844.1512.9155.4178.2311.2578.3378.6045.2934.9511-.2667 2.0889-1.4134 4.0089-3.1378 5.2623-1.3245.9688-2.88 1.4666-4.4889 1.4666-.4889 0-.9778-.0444-1.4667-.1422-3.0666-.5778-5.5111-3.0222-6.0889-6.08-.4-2.1156.0623-4.2311 1.3245-5.9644 1.2533-1.7245 3.1733-2.8712 5.2622-3.1378.3378-.0445.6933.0622.9511.2933.2667.2311.4178.5689.4178.9156v3.1822c0 1.5644 1.2711 2.8355 2.8356 2.8355z" fill="url(#c)" fill-rule="evenodd"/></svg>

<svg width="40" height="40" viewBox="0 0 40 40" fill="none" xmlns="http://www.w3.org/2000/svg">
<circle cx="20" cy="20" r="19" fill="#151722" stroke="url(#paint0_linear_342_13704)" stroke-width="2"/>
<path fill-rule="evenodd" clip-rule="evenodd" d="M24.489 11.4061C26.4179 11.975 28.0268 13.5839 28.5957 15.5128C29.0312 16.9794 28.9868 17.9928 28.4446 18.6861C27.8135 19.5305 26.6668 19.6283 25.8668 19.6283H23.3157C21.3601 19.6283 20.3646 18.5172 20.3646 16.3305V14.1172C20.3646 13.3083 20.4624 12.1705 21.3068 11.5394C22.009 11.015 23.0224 10.9794 24.489 11.4061ZM25.2266 20.7925C25.5732 20.7925 25.911 20.9437 26.1421 21.2103C26.3732 21.4681 26.4799 21.8148 26.4355 22.1614C26.1688 24.2503 25.0221 26.1703 23.2977 27.4237C21.9732 28.3925 20.4177 28.8903 18.8088 28.8903C18.3199 28.8903 17.831 28.8459 17.3421 28.7481C14.2755 28.1703 11.831 25.7259 11.2532 22.6681C10.8532 20.5525 11.3155 18.437 12.5777 16.7037C13.831 14.9792 15.751 13.8325 17.8399 13.5659C18.1777 13.5214 18.5332 13.6281 18.791 13.8592C19.0577 14.0903 19.2088 14.4281 19.2088 14.7748V17.957C19.2088 19.5214 20.4799 20.7925 22.0444 20.7925H25.2266Z" fill="url(#paint1_linear_342_13704)"/>
<defs>
<linearGradient id="paint0_linear_342_13704" x1="20" y1="0" x2="20" y2="40" gradientUnits="userSpaceOnUse">
<stop stop-color="#34C796"/>
<stop offset="1" stop-color="#0B7A55"/>
</linearGradient>
<linearGradient id="paint1_linear_342_13704" x1="20.0019" y1="11.1133" x2="20.0019" y2="28.8903" gradientUnits="userSpaceOnUse">
<stop stop-color="#34C796"/>
<stop offset="1" stop-color="#0B7A55"/>
</linearGradient>
</defs>
</svg>
